assets/svg/icon_block_share.svg

<svg width="24" height="24" viewBox="0 0 24 24" fill="none" xmlns="http://www.w3.org/2000/svg">
<path d="M11.9969 20.9991C7.94948 20.9991 6.03137 20.773 4.6287 19.3699C3.22604 17.9668 3 16.0482 3 11.9995C3 7.95085 3.22604 6.03217 4.6287 4.62909C5.80323 3.45422 7.29461 3.02949 10.3281 3.00413H10.3344C10.7105 3.00413 11.0168 3.30841 11.021 3.68454C11.0231 4.06278 10.7189 4.37341 10.3408 4.37763C7.68753 4.40088 6.49188 4.70939 5.60043 5.6011C4.63715 6.56467 4.37309 7.94028 4.37309 11.9995C4.37309 16.0587 4.63715 17.4343 5.60043 18.3979C6.5637 19.3615 7.93892 19.6256 11.9969 19.6256C16.0549 19.6256 17.4301 19.3615 18.3934 18.3979C19.2849 17.5062 19.5933 16.3102 19.6165 13.6562C19.6208 13.2779 19.9271 12.9757 20.3031 12.9757H20.3094C20.6875 12.98 20.9939 13.2885 20.9896 13.6688C20.9643 16.7032 20.5376 18.1972 19.3652 19.3699C17.9625 20.773 16.0444 20.9991 11.9969 20.9991Z" fill="#5A5E66"/>
<path d="M15.5227 13.023C14.3967 14.1556 12.8377 14.8022 11.2407 14.7959C10.852 14.7959 10.5352 14.4768 10.5352 14.088C10.5352 13.8978 10.6091 13.7225 10.7422 13.5893C10.8753 13.4562 11.0527 13.3822 11.2407 13.3822C12.466 13.3844 13.6616 12.8899 14.5256 12.0214C15.3896 11.1614 15.886 9.96962 15.886 8.75038V5.36734L13.4144 7.83964C13.2814 7.97277 13.1039 8.04672 12.9159 8.04672C12.7279 8.04672 12.5505 7.97488 12.4174 7.84175C12.2822 7.70652 12.2082 7.52902 12.2082 7.34095C12.2082 7.15078 12.2822 6.97539 12.4131 6.84227L16.0508 3.20355C16.3275 2.93096 16.7754 2.93096 17.0521 3.20355L20.7932 6.94581C21.07 7.22051 21.0679 7.6706 20.7932 7.94741C20.5186 8.22211 20.0708 8.22422 19.7962 7.94741L17.2992 5.44975V8.73559C17.2992 10.3521 16.6697 11.8735 15.5248 13.0188L15.5227 13.023Z" fill="#5A5E66"/>
</svg>

<svg xmlns="http://www.w3.org/2000/svg" width="24" height="24" fill="none"><path fill="#5A5E66" d="M11.997 21c-4.048 0-5.966-.226-7.368-1.63C3.226 17.969 3 16.05 3 12c0-4.048.226-5.967 1.629-7.37 1.174-1.175 2.666-1.6 5.7-1.625h.005a.688.688 0 0 1 .007 1.374c-2.653.023-3.85.331-4.74 1.223-.964.964-1.228 2.34-1.228 6.398 0 4.06.264 5.435 1.227 6.399.964.963 2.339 1.227 6.397 1.227s5.433-.264 6.396-1.227c.892-.892 1.2-2.088 1.223-4.742a.687.687 0 0 1 .687-.68h.006a.687.687 0 0 1 .68.693c-.025 3.034-.451 4.528-1.624 5.7-1.402 1.404-3.32 1.63-7.368 1.63"/><path fill="#5A5E66" d="M15.523 13.024a6.04 6.04 0 0 1-4.282 1.773.709.709 0 0 1-.499-1.207.7.7 0 0 1 .499-.207 4.647 4.647 0 0 0 4.645-4.632V5.368l-2.472 2.473a.7.7 0 0 1-.498.207.704.704 0 0 1-.503-1.204l3.638-3.64a.715.715 0 0 1 1.001 0l3.741 3.743a.71.71 0 0 1 0 1.001.704.704 0 0 1-.997 0L17.3 5.451v3.285a6.02 6.02 0 0 1-1.774 4.284z"/></svg>
